X:30
%%etbk:tnset id:11,pos:1,rep:3x,ant:
%%etbk:wsite http://www.thesession.org/tunes/display/11114
%%etbk:pldat 2016-07-25T19:09,2015-03-24T17:29,2015-01-26T19:08,2015-01-24T14:11,2015-01-18T11:36,2014-12-07T13:49,2014-12-06T15:50,2014-05-07T18:45,2014-03-22T16:15,2014-02-07T16:39,2013-11-24T15:41,2013-10-02T17:12,2013-05-07T19:40,2013-05-01T16:44,2013-04-30T16:30
T: Tom Doherty's
Z: Piano Box Version by Martin Fleischmann
H: Created 2013-02-19 /  Last Modified 2013-02-19
M: 4/4
L: 1/8
R: reel
K: Bdor
|: !2!f2!1!d!2!f !1!B!2!f!1!d!2!f | !2!fefg abag | f2df Bf!1!d!2!f | !1!e!2!c!1!A!2!c !3!e!5!a!4!g!5!a |
f2df Bfdf | fefg a2ga | !5!bg!4!af !3!g!1!efa | !1!e!2!c!1!A!2!c !3!e!2!f!3!g!4!a :|
|: !5!b!1!BBB !3!f!1!BBB | !5!b!1!BBB !3!f3!5!b | !5!b!1!BBB !3!f!1!BBB  | !3!e!2!c!1!A!2!c !3!e!2!f!3!g!4!a |
bBBB fBBB | bBBB f3b | bgaf gefa | ecAc efga :|


